X:1
T:Fair Nelson
M:3/4
L:1/8
K:G
 D2| G2 G3/2 G/2 GG| A G3 z G| G2 F3 G| D4 z D| G2 G3/2 G/2 GG| A G3 z G|\
 GGd dB B| A4 GA| B2 B2 B2| d d3 dd| d2 A2 G2| D4 DD| D2 A3 B| G3 G G2|\
 D3 d A2| G4||
